X:1
T:Title
%%score { ( 1 3 4 ) | 2 }
L:1/8
Q:1/4=100
M:4/4
K:A
V:1 treble nm="Grand Piano"
V:3 treble 
V:4 treble 
V:2 bass 
V:1
 [CE]>[CE] [CE]>[CE] [DF]2 [CE]2 | [CE]>[CE] [EA]>B c4 | [Fd]>[Fd] [DF]>[Fd] [Ec]2 [CA]2 | %3
w: J.~M.~Black * * * * *|||
 [^DA]>[DA] [DG]>[DF] z2 =D2 | [CE]>[CE] [CE]>[CE] [DF]2 [CE]2 | [CE]>[CE] [EA]>B c4 | %6
w: |||
 [Fd]>[Fd] [DF]>[Fd] [Ec]2 [EA]2 | [FB]>[FB] [CEA]>[B,EG] [CEA]4 | c2- [Ec-]2 c>[DB] [CA]>[DF] | %9
w: |||
 E3 F z4 | B6 z2 | A6 z2 | c6 z2 | z2 D>D [Fd]4 | c6 z2 | A6 z2 |] %16
w: |||||||
V:2
 [A,,A,]>[A,,A,] [A,,A,]>[A,,A,] [A,,A,]2 [A,,A,]2 | [A,,A,]>[A,,A,] [C,A,]>[E,G,E] [A,E]4 | %2
 [D,A,]>[D,A,] [D,A,]>[D,A,] [A,,A,]2 [A,,A,]2 | [B,,F,]>[B,,F,] [B,,B,]>[B,,A,] [E,G,]4 | %4
 [A,,A,]>[A,,A,] [A,,A,]>[A,,A,] [A,,A,]2 [A,,A,]2 | [A,,A,]>[A,,A,] [C,A,]>[E,G,E] [A,E]4 | %6
 [D,A,]>[D,A,] [D,A,]>[D,A,] [A,,A,]2 [A,,A,]2 | [D,D]>[D,D] E,>E, A,,4 | %8
 [A,,A,]2 [A,,A,]2 [A,,A,]>[A,,A,] [A,,A,]>[A,,A,] | [A,,A,]>[A,,A,] [A,,A,]>[A,,A,] [A,,A,]4 | %10
 [E,G,D]2 [E,G,]2 [E,G,]>[E,B,D] [E,B,D]>[E,B,D] | [A,,A,]>[A,,A,] [A,,A,]>[A,,A,] [A,,A,]2 z2 | %12
 [A,,A,]2 [A,,A,]2 [A,,A,]>[A,,A,] [B,,G,]>[C,A,] | [D,A,D]2 [D,A,]>[D,A,] [D,A,]4 | %14
 [E,A,E]2 [E,A,]2 [E,A,]>[E,A,C] [E,G,D]>[E,G,D] | [A,,A,]2 [A,,F,]2 [A,,E,]2 z2 |] %16
V:3
 x8 | x8 | x8 | z4 E4 | x8 | x8 | x8 | x8 | E2 z2 E2 z2 | C>C z z/ D/ [CE]4 | z2 D2 D>G F>G | %11
 C>C C>C C2 z2 | E2 E2 E>[CA] [EB]>[EA] | F4 z4 | z2 E2 .E>A B>B | C2 D2 C2 z2 |] %16
V:4
 x8 | x8 | x8 | x8 | x8 | x8 | x8 | x8 | x8 | z2 C2 z4 | x8 | x8 | x8 | x8 | x8 | x8 |] %16

